assets/octopus-slate-e2192dc6.svg

<!DOCTYPE svg PUBLIC "-//W3C//DTD SVG 1.1//EN" "http://www.w3.org/Graphics/SVG/1.1/DTD/svg11.dtd">

<!-- Uploaded to: SVG Repo, www.svgrepo.com, Transformed by: SVG Repo Mixer Tools -->
<svg width="800px" height="800px" viewBox="-7.5 0 271 271" version="1.1" xmlns="http://www.w3.org/2000/svg" xmlns:xlink="http://www.w3.org/1999/xlink" preserveAspectRatio="xMidYMid" fill="#000000">

<g id="SVGRepo_bgCarrier" stroke-width="0"/>

<g id="SVGRepo_tracerCarrier" stroke-linecap="round" stroke-linejoin="round"/>

<g id="SVGRepo_iconCarrier"> <g> <path d="M17.1555807,205.218876 C37.5752036,192.098061 61.4596304,169.548436 52.3716202,143.136406 C47.4300146,128.70919 40.5572069,116.326776 39.6484059,100.735159 C38.8305965,87.5311278 40.7647982,74.3011882 45.3284123,61.8839151 C63.7032329,12.8654601 118.004094,-10.337366 167.050949,4.37385054 C212.491,18.0058658 243.731035,70.7731251 224.930214,116.752777 C214.053002,143.306807 209.196596,163.86843 233.535424,184.430053 C240.095831,190.110059 256.056649,198.402868 256,208.34288 C256,221.350094 230.43982,205.502876 227.599817,203.316074 C230.837421,208.99608 262.986257,242.479718 242.538234,244.865321 C223.709013,247.052123 207.066594,220.753693 195.763381,209.478881 C176.76376,190.50766 180.058164,232.482907 179.972963,241.144916 C179.972963,254.833732 170.174952,282.552163 152.822533,264.489743 C138.622517,249.579726 143.904923,225.808899 133.936512,209.223281 C122.775299,191.07566 104.741279,227.370901 100.055274,234.016508 C95.000068,241.428917 69.6388396,277.354957 59.5284282,258.213336 C51.349219,242.678518 64.4132337,218.453291 70.888441,204.253275 C68.5312383,209.365281 51.9172197,216.891289 47.0608142,219.362092 C36.5310162,225.166458 24.5915033,227.920217 12.5831755,227.314101 C-12.9768532,225.468099 6.61916882,211.921284 17.0419805,205.218876 L17.1555807,205.218876 Z" fill="rgb(226 232 240)" fill-rule="nonzero"> </path> </g> </g>

</svg>

<svg xmlns="http://www.w3.org/2000/svg" width="800px" height="800px" preserveAspectRatio="xMidYMid" viewBox="-7.5 0 271 271"><path fill="rgb(226 232 240)" d="M17.156 205.219c20.42-13.12 44.304-35.67 35.216-62.083-4.942-14.427-11.815-26.81-12.724-42.4a95.5 95.5 0 0 1 5.68-38.852c18.375-49.019 72.676-72.221 121.723-57.51 45.44 13.632 76.68 66.4 57.88 112.379-10.878 26.554-15.734 47.115 8.604 67.677 6.56 5.68 22.522 13.973 22.465 23.913 0 13.007-25.56-2.84-28.4-5.027 3.237 5.68 35.386 39.164 14.938 41.55-18.829 2.186-35.471-24.112-46.775-35.387-19-18.971-15.705 23.004-15.79 31.666 0 13.689-9.798 41.407-27.15 23.345-14.2-14.91-8.918-38.681-18.886-55.267-11.162-18.147-29.196 18.148-33.882 24.794-5.055 7.412-30.416 43.338-40.527 24.196-8.179-15.534 4.885-39.76 11.36-53.96-2.357 5.112-18.97 12.638-23.827 15.11a64.67 64.67 0 0 1-34.478 7.951c-25.56-1.846-5.964-15.393 4.459-22.095z"/></svg>
